X: 54
T:Man of the House
M:4/4
L:1/8
R:Reel
K:G
E2BE GABE|~E2BE ADFD|E2BE GABc|dBBA BEED|E2BE GABE|~E2BE ADFD|(3EEE BE
GABc|dBBA BE~E2|efge fgaf|gfed edBd|ef (3gfe fgaf|gfed Beed|efge fgaf
|gfed efga|bg (3age gfed|eBBA GEED|
